!! 00005] TT[TB
!! Eigene Aufnahme
!!!OTL: Ga laohan
!!!ARE: Asia, China,ÿQinghai, Osten
!! Ethnic Group: Han, Hui
!! I, 259
!!!SCT: C0139
!!!YEM: Copyright 1995, estate of Helmut Schaffrath.
**kern
*ICvox
*Ivox
*M4/4
*k[b-]
*F:
{8dd
8ff
8dd
8cc
4a
8a
8cc
=1
2dd
4dd}
{8cc
8dd
=2
8ff
4ff
8cc
4dd
8cc
8a
=3
2g
2g}
=4
{8cc
8a
8a
8cc
4dd
8ff
8dd
=5
8cc
8dd
8cc
8a
4g}
{8f
8g
=6
8cc
8cc
8cc
8g
8a
8g
8f
8e
=7
2d
2d}
=8
{8cc
8a
8a
8cc
4dd
8ff
8dd
=9
8cc
8dd
8cc
8a
4g}
{8f
8g
=10
8cc
8cc
8cc
8g
8a
8g
8f
8e
=11
2d
2d}
==
!!!AGN: Xiaodiao, Jiuling, Xiuhebao diao. Yinjiu shi chang
!! Variante zu Nr. 195, aber sehr schwer zu erkennen, da Tonart und
!!    Rhythmus verschieden. Mehr Aehnlichkeit zu I, 125.
!!    Wer dieses Spiel verloren hat, muss einen Schnaps trinken
!!    oder ein Lied  singen. +++ Doublette +++
!!    Wird normalerweise von einer kleinen volkstuemlichen Pipa begleitet.
!!    Saengerin: Huang Bai = VARIANTE!!
!!!ONB: ESAC (Essen Associative Code) Database: CHINA
!!!AMT: simple quadruple
!!!AIN: vox
!!!EED: Helmut Schaffrath
!!!EEV: 1.0
*-
